modules/linea-weather/icons/weather-newmoon.svg

<svg xmlns="http://www.w3.org/2000/svg" width="64" height="64" viewBox="0 0 64 64"><circle fill="none" stroke="#000" stroke-width="2" stroke-miterlimit="10" cx="32" cy="32" r="31"/><path fill="none" stroke="#000" stroke-width="2" stroke-miterlimit="10" d="M47 5H17m38 6H9m50 6H5m57 6H2m61 6H1m62 6H1m61 6H2m57 6H5m50 6H9m38 6H17"/></svg>

<svg xmlns="http://www.w3.org/2000/svg" width="64" height="64" viewBox="0 0 64 64"><circle fill="none" stroke="#000" stroke-width="2" stroke-miterlimit="10" cx="32" cy="32" r="31"/><path fill="none" stroke="#000" stroke-width="2" stroke-miterlimit="10" d="M47 5H17M55 11H9M59 17H5M62 23H2M63 29H1M63 35H1M62 41H2M59 47H5M55 53H9M47 59H17"/></svg>
